X: 1
T: Aim\'e Gagnon's #1
O: Qu\'ebec
R: reel
M: 4/4
L: 1/8
K: G
DG | "G"B2BA GBed | B2BA GBdB | "C"edcB cBAG |1,3 "Am"FGAB "D"A2 :|2,4 "D"FDEF "G"G4 :|
|:"B7"e2f2 "Em"g2e2 | e3f "C"gfed | edcB "Am"cBAG |1,3 "D"FGAB A4 :|2,4 "D"FDEF "G"G4 :|

%%sep 1 1 500

